static/app-icons/dark-theme/054.svg

<svg xmlns="http://www.w3.org/2000/svg" viewBox="0 0 32 32"><defs><linearGradient id="linear-gradient" x1="2533.901" y1="3105.711" x2="2540.901" y2="3105.711" gradientTransform="translate(-2520.151 -3084.211)" gradientUnits="userSpaceOnUse"><stop offset=".2"/><stop offset="1" stop-color="#231f20" stop-opacity="0"/></linearGradient><linearGradient id="linear-gradient-2" y1="32" x2="32" gradientUnits="userSpaceOnUse"><stop offset=".1" stop-color="#be95ff"/><stop offset=".9" stop-color="#4589ff"/></linearGradient><style>.cls-2{fill:#f2f2f2}.cls-4{fill:#f4f4f4}</style><mask id="mask" x="0" y="0" width="32" height="32" maskUnits="userSpaceOnUse"><path d="M15 16h-4a5.006 5.006 0 00-5 5v7h2v-7a3 3 0 013-3h4a3 3 0 013 3v3h2v-3a5.006 5.006 0 00-5-5z" fill="#f3f3f3"/><path class="cls-2" d="M22 2H4v2h4v5a5 5 0 0010 0V4h4zm-9 10a3 3 0 01-3-3V8h6v1a3 3 0 01-3 3zm3-6h-6V4h6z"/><path class="cls-2" d="M5 6a1 1 0 00-1 1v6h2V7a1 1 0 00-1-1z"/><path transform="rotate(-90 17.25 21.5)" fill="url(#linear-gradient)" d="M13.75 16.75h7v9.5h-7z"/></mask></defs><g id="Layer_2" data-name="Layer 2"><g id="Dark_theme_icons" data-name="Dark theme icons"><path class="cls-4" d="M21 22h2v8h-2zM26 18h2v12h-2zM16 25h2v5h-2z"/><g mask="url(#mask)"><path id="Color" fill="url(#linear-gradient-2)" d="M0 0h32v32H0z"/></g></g></g></svg>

<svg xmlns="http://www.w3.org/2000/svg" xmlns:xlink="http://www.w3.org/1999/xlink" viewBox="0 0 32 32"><defs><style>.cls-1{fill:#f3f3f3;}.cls-2{fill:#f2f2f2;}.cls-3{fill:url(#linear-gradient);}.cls-4{fill:#f4f4f4;}.cls-5{mask:url(#mask);}.cls-6{fill:url(#linear-gradient-2);}</style><linearGradient id="linear-gradient" x1="2533.901" y1="3105.711" x2="2540.901" y2="3105.711" gradientTransform="translate(-2520.151 -3084.211)" gradientUnits="userSpaceOnUse"><stop offset="0.2"/><stop offset="1" stop-color="#231f20" stop-opacity="0"/></linearGradient><mask id="mask" x="0" y="0" width="32" height="32" maskUnits="userSpaceOnUse"><path class="cls-1" d="M15,16H11a5.006,5.006,0,0,0-5,5v7H8V21a3,3,0,0,1,3-3h4a3,3,0,0,1,3,3v3h2V21A5.006,5.006,0,0,0,15,16Z"/><path class="cls-2" d="M22,2H4V4H8V9A5,5,0,0,0,18,9V4h4ZM13,12a3,3,0,0,1-3-3V8h6V9A3,3,0,0,1,13,12Zm3-6H10V4h6Z"/><path class="cls-2" d="M5,6A1,1,0,0,0,4,7v6H6V7A1,1,0,0,0,5,6Z"/><rect class="cls-3" x="13.75" y="16.75" width="7" height="9.5" transform="translate(-4.25 38.75) rotate(-90)"/></mask><linearGradient id="linear-gradient-2" y1="32" x2="32" gradientUnits="userSpaceOnUse"><stop offset="0.1" stop-color="#be95ff"/><stop offset="0.9" stop-color="#4589ff"/></linearGradient></defs><g id="Layer_2" data-name="Layer 2"><g id="Dark_theme_icons" data-name="Dark theme icons"><rect class="cls-4" x="21" y="22" width="2" height="8"/><rect class="cls-4" x="26" y="18" width="2" height="12"/><rect class="cls-4" x="16" y="25" width="2" height="5"/><g class="cls-5"><rect id="Color" class="cls-6" width="32" height="32"/></g></g></g></svg>
